icons/bell-slash-17.svg

<svg width="16" height="17" viewBox="0 0 16 17" fill="none" xmlns="http://www.w3.org/2000/svg">
<path fill-rule="evenodd" clip-rule="evenodd" d="M7.99999 3.32543C7.25232 3.32543 6.57842 3.63729 6.09962 4.13958C5.88527 4.36444 5.52922 4.37297 5.30436 4.15862C5.07949 3.94427 5.07096 3.58822 5.28531 3.36336C5.96759 2.6476 6.93204 2.20044 7.99999 2.20044C10.0711 2.20044 11.75 3.87936 11.75 5.95041V7.73061C11.75 8.04127 11.4982 8.29311 11.1875 8.29311C10.8768 8.29311 10.625 8.04127 10.625 7.73061V5.95041C10.625 4.50067 9.44973 3.32543 7.99999 3.32543ZM5.13678 5.43254L2.89245 3.80733C2.64083 3.62513 2.28915 3.68139 2.10695 3.93301C1.92474 4.18462 1.98101 4.5363 2.23263 4.71851L4.25002 6.17938V8.16081C4.25002 8.19783 4.23906 8.23402 4.21854 8.26482L2.94119 10.1808C2.81655 10.3678 2.75003 10.5875 2.75003 10.8122C2.75003 11.4408 3.25962 11.9504 3.88822 11.9504H12.2195L13.1076 12.5934C13.3592 12.7757 13.7109 12.7194 13.893 12.4678C14.0753 12.2162 14.019 11.8645 13.7673 11.6822L12.7365 10.9358C12.733 10.9332 12.7296 10.9307 12.7261 10.9283L5.14831 5.44089C5.1445 5.43806 5.14066 5.43527 5.13678 5.43254ZM10.6659 10.8254L5.37501 6.99403V8.16081C5.37501 8.41993 5.29832 8.67325 5.15458 8.88885L3.87724 10.8048C3.8758 10.807 3.87502 10.8096 3.87502 10.8122C3.87502 10.815 3.8755 10.8164 3.87583 10.8171C3.87633 10.8183 3.87729 10.8199 3.87889 10.8215C3.88049 10.8231 3.88209 10.8241 3.88326 10.8246C3.88405 10.8249 3.88536 10.8254 3.88822 10.8254H10.6659ZM7.99999 14.2004C8.76505 14.2004 9.39633 13.6276 9.48842 12.8875C9.50122 12.7847 9.41603 12.7004 9.31248 12.7004H6.6875C6.58395 12.7004 6.49877 12.7847 6.51156 12.8875C6.60367 13.6276 7.23495 14.2004 7.99999 14.2004Z" fill="#272431"/>
</svg>

<svg xmlns="http://www.w3.org/2000/svg" width="16" height="17" viewBox="0 0 16 17"><path fill-rule="evenodd" d="M8 3.325c-.748 0-1.422.312-1.9.815a.562.562 0 01-.815-.777A3.75 3.75 0 0111.75 5.95v1.78a.562.562 0 11-1.125 0V5.95A2.625 2.625 0 008 3.325zM5.137 5.433L2.892 3.807a.562.562 0 10-.66.912l2.018 1.46v1.982a.188.188 0 01-.031.104L2.94 10.18a1.138 1.138 0 00.947 1.77h8.332l.888.642a.562.562 0 10.66-.91l-1.032-.747a.338.338 0 00-.01-.008L5.148 5.441a.554.554 0 00-.011-.008zm5.529 5.392L5.375 6.994v1.167c0 .259-.077.512-.22.728l-1.278 1.916a.014.014 0 00-.002.007v.005l.004.005a.015.015 0 00.004.003h6.783zM8 14.2a1.5 1.5 0 001.488-1.313c.013-.102-.072-.187-.176-.187H6.688c-.104 0-.19.085-.176.188A1.5 1.5 0 008 14.2z"/></svg>
